; generated by PrusaSlicer 2.4.1+win64 on 2022-05-26 at 01:14:11 UTC


;
;
; 

; external perimeters extrusion width = 0.60mm
; perimeters extrusion width = 0.50mm
; infill extrusion width = 0.50mm
; solid infill extrusion width = 0.50mm
; top infill extrusion width = 0.45mm
; first layer extrusion width = 0.42mm

; external perimeters extrusion width = 0.60mm
; perimeters extrusion width = 0.50mm
; infill extrusion width = 0.50mm
; solid infill extrusion width = 0.50mm
; top infill extrusion width = 0.45mm
; first layer extrusion width = 0.42mm

; external perimeters extrusion width = 0.60mm
; perimeters extrusion width = 0.50mm
; infill extrusion width = 0.50mm
; solid infill extrusion width = 0.50mm
; top infill extrusion width = 0.45mm
; first layer extrusion width = 0.42mm

M73 P0 R91
M73 Q0 S92
M201 X1000 Y1000 Z200 E5000 ; sets maximum accelerations, mm/sec^2
M203 X200 Y200 Z12 E120 ; sets maximum feedrates, mm / sec
M204 P1250 R1250 T1250 ; sets acceleration (P, T) and retract acceleration (R), mm/sec^2
M205 X8.00 Y8.00 Z0.40 E4.50 ; sets the jerk limits, mm/sec
M205 S0 T0 ; sets the minimum extruding and travel feed rate, mm/sec
M107
;TYPE:Custom
M862.3 P "MK3SMMU2S" ; printer model check
M862.1 P0.4 ; nozzle diameter check
M115 U3.11.0 ; tell printer latest fw version
G90 ; use absolute coordinates
M83 ; extruder relative mode
M104 S230 ; set extruder temp
M140 S85 ; set bed temp
Tx
M190 S85 ; wait for bed temp
M109 S230 ; wait for extruder temp
G28 W ; home all without mesh bed level
G80 ; mesh bed leveling

;go outside print area
G1 Y-3 F1000
G1 Z0.4 F1000
; select extruder
Tc
; purge line
G1 X55 F2000
G1 Z0.3 F1000
G92 E0
G1 X240 E25 F2200
G1 Y-2 F1000
M73 Q0 S91
G1 X55 E25 F1400
G1 Z0.2 F1000
G1 X5 E4 F1000

M221 S95
G92 E0

; Don't change E values below. Excessive value can damage the printer.

M907 E538 ; set extruder motor current
G21 ; set units to millimeters
G90 ; use absolute coordinates
M83 ; use relative distances for extrusion
M900 K0.08 ; Filament gcode LA 1.5
M900 K45 ; Filament gcode LA 1.0
M107
;LAYER_CHANGE
;Z:0.2
;HEIGHT:0.2
;BEFORE_LAYER_CHANGE
G92 E0.0
;0.2


G1 E-1 F2100
G1 Z.2 F720
;AFTER_LAYER_CHANGE
;0.2
G1 Z.4
G1 X67.511 Y50.262 F10800
G1 Z.2 F720
G1 E1 F2100
M204 S800
;TYPE:Skirt/Brim
;WIDTH:0.42
G1 F1200
G1 X93.126 Y25.262 E1.12224
G1 X94.786 Y24.586 E.05621
G1 X99.172 Y24.586 E.13752
G1 X100.065 Y24.76 E.02853
G1 X190.75 Y61.532 E3.06821
G1 X191.814 Y62.386 E.04278
M73 P0 R90
G1 X192.233 Y63.735 E.04429
G1 X192.233 Y148.28 E2.65086
G1 X191.842 Y149.587 E.04278
G1 X190.611 Y150.535 E.0487
G1 X90.336 Y184.1 E3.31553
G1 X89.581 Y184.223 E.02397
G1 X85.195 Y184.223 E.13752
G1 X83.888 Y183.832 E.04278
G1 X82.879 Y182.381 E.05542
G1 X66.856 Y112.941 E2.23445
G1 X66.795 Y112.406 E.01687
G1 X66.795 Y51.963 E1.89516
G1 X67.488 Y50.317 E.056
M204 S1000
; printing object BracketPlate.stl id:2 copy 0
;WIPE_START
G1 F8640
G1 X70.431 Y47.442 E-.95
;WIPE_END
G1 E-.05 F2100
G1 Z.4 F720
G1 X157.648 Y104.861 F10800
G1 Z.2 F720
G1 E1 F2100
M204 S800
;TYPE:Perimeter
G1 F1200
G1 X158.013 Y104.386 E.01878
G1 X158.488 Y104.021 E.01878
G1 X159.041 Y103.792 E.01878
G1 X159.589 Y103.72 E.01734
G1 X160.222 Y103.79 E.01997
G1 X160.782 Y104.021 E.01897
G1 X161.257 Y104.386 E.01878
G1 X161.621 Y104.861 E.01878
G1 X161.85 Y105.414 E.01878
G1 X161.928 Y106.008 E.01878
G1 X161.85 Y106.601 E.01878
G1 X161.621 Y107.155 E.01878
G1 X161.257 Y107.63 E.01878
G1 X160.782 Y107.994 E.01878
G1 X160.228 Y108.223 E.01878
G1 X159.635 Y108.302 E.01878
G1 X159.041 Y108.223 E.01878
G1 X158.488 Y107.994 E.01878
G1 X158.013 Y107.63 E.01878
G1 X157.648 Y107.155 E.01878
G1 X157.419 Y106.601 E.01878
G1 X157.341 Y106.008 E.01878
G1 X157.419 Y105.414 E.01878
G1 X157.625 Y104.916 E.01689
M204 S1000
G1 X157.977 Y105.051 F10800
M204 S800
;TYPE:External perimeter
G1 F1200
G1 X158.282 Y104.655 E.01566
G1 X158.678 Y104.351 E.01566
G1 X159.139 Y104.159 E.01566
G1 X159.593 Y104.1 E.01436
G1 X160.128 Y104.158 E.01686
G1 X160.591 Y104.351 E.01573
G1 X160.988 Y104.655 E.01566
G1 X161.292 Y105.051 E.01566
G1 X161.483 Y105.512 E.01566
G1 X161.548 Y106.008 E.01566
G1 X161.483 Y106.503 E.01566
G1 X161.292 Y106.964 E.01566
G1 X160.988 Y107.361 E.01566
G1 X160.591 Y107.665 E.01566
G1 X160.13 Y107.856 E.01566
G1 X159.635 Y107.921 E.01566
G1 X159.139 Y107.856 E.01566
G1 X158.678 Y107.665 E.01566
G1 X158.282 Y107.361 E.01566
G1 X157.977 Y106.964 E.01566
G1 X157.786 Y106.503 E.01566
G1 X157.721 Y106.008 E.01566
G1 X157.786 Y105.512 E.01566
G1 X157.954 Y105.106 E.01378
M204 S1000
G1 X157.777 Y104.704 F10800
;WIPE_START
G1 F8640
G1 X158.282 Y104.655 E-.12878
G1 X158.678 Y104.351 E-.11534
G1 X159.139 Y104.159 E-.11534
G1 X159.593 Y104.1 E-.10573
G1 X160.128 Y104.158 E-.12415
G1 X160.591 Y104.351 E-.11587
G1 X160.988 Y104.655 E-.11534
G1 X161.292 Y105.051 E-.11534
G1 X161.315 Y105.107 E-.0141
;WIPE_END
G1 E-.05 F2100
G1 Z.4 F720
G1 X153.517 Y105.414 F10800
G1 Z.2 F720
G1 E1 F2100
M204 S800
;TYPE:Perimeter
G1 F1200
G1 X153.595 Y106.008 E.01878
G1 X153.517 Y106.601 E.01878
G1 X153.288 Y107.155 E.01878
G1 X152.923 Y107.63 E.01878
G1 X152.448 Y107.994 E.01878
G1 X151.895 Y108.223 E.01878
G1 X151.301 Y108.302 E.01878
G1 X150.708 Y108.223 E.01878
G1 X150.154 Y107.994 E.01878
G1 X149.679 Y107.63 E.01878
G1 X149.315 Y107.155 E.01878
G1 X149.086 Y106.601 E.01878
G1 X149.007 Y106.008 E.01878
G1 X149.086 Y105.414 E.01878
G1 X149.315 Y104.861 E.01878
G1 X149.679 Y104.386 E.01878
G1 X150.154 Y104.021 E.01878
G1 X150.708 Y103.792 E.01878
G1 X151.256 Y103.72 E.01734
G1 X151.889 Y103.79 E.01997
G1 X152.448 Y104.021 E.01897
G1 X152.923 Y104.386 E.01878
G1 X153.288 Y104.861 E.01878
G1 X153.494 Y105.359 E.01689
M204 S1000
G1 X153.15 Y105.512 F10800
M204 S800
;TYPE:External perimeter
G1 F1200
G1 X153.215 Y106.008 E.01566
G1 X153.15 Y106.503 E.01566
G1 X152.958 Y106.964 E.01566
G1 X152.654 Y107.361 E.01566
G1 X152.258 Y107.665 E.01566
G1 X151.797 Y107.856 E.01566
G1 X151.301 Y107.921 E.01566
G1 X150.806 Y107.856 E.01566
G1 X150.345 Y107.665 E.01566
G1 X149.948 Y107.361 E.01566
G1 X149.644 Y106.964 E.01566
G1 X149.453 Y106.503 E.01566
G1 X149.388 Y106.008 E.01566
G1 X149.453 Y105.512 E.01566
G1 X149.644 Y105.051 E.01566
G1 X149.948 Y104.655 E.01566
G1 X150.345 Y104.351 E.01566
G1 X150.806 Y104.159 E.01566
G1 X151.26 Y104.1 E.01436
G1 X151.794 Y104.158 E.01686
G1 X152.258 Y104.351 E.01573
G1 X152.654 Y104.655 E.01566
G1 X152.958 Y105.051 E.01566
G1 X153.127 Y105.457 E.01378
M204 S1000
G1 X153.536 Y105.616 F10800
;WIPE_START
G1 F8640
G1 X153.215 Y106.008 E-.12878
G1 X153.15 Y106.503 E-.11534
G1 X152.958 Y106.964 E-.11534
G1 X152.654 Y107.361 E-.11534
G1 X152.258 Y107.665 E-.11534
G1 X151.797 Y107.856 E-.11534
G1 X151.301 Y107.921 E-.11534
G1 X150.806 Y107.856 E-.11534
G1 X150.751 Y107.833 E-.01382
;WIPE_END
G1 E-.05 F2100
G1 Z.4 F720
G1 X145.262 Y106.008 F10800
G1 Z.2 F720
G1 E1 F2100
M204 S800
;TYPE:Perimeter
G1 F1200
G1 X145.184 Y106.601 E.01878
G1 X144.955 Y107.155 E.01878
G1 X144.59 Y107.63 E.01878
G1 X144.115 Y107.994 E.01878
G1 X143.562 Y108.223 E.01878
G1 X142.968 Y108.302 E.01878
G1 X142.374 Y108.223 E.01878
G1 X141.821 Y107.994 E.01878
G1 X141.346 Y107.63 E.01878
G1 X140.981 Y107.155 E.01878
G1 X140.752 Y106.601 E.01878
G1 X140.674 Y106.008 E.01878
G1 X140.752 Y105.414 E.01878
G1 X140.981 Y104.861 E.01878
G1 X141.346 Y104.386 E.01878
G1 X141.821 Y104.021 E.01878
G1 X142.374 Y103.792 E.01878
G1 X142.923 Y103.72 E.01734
G1 X143.556 Y103.79 E.01997
G1 X144.115 Y104.021 E.01897
G1 X144.59 Y104.386 E.01878
G1 X144.955 Y104.861 E.01878
G1 X145.184 Y105.414 E.01878
G1 X145.254 Y105.948 E.01689
M204 S1000
G1 X144.881 Y106.008 F10800
M204 S800
;TYPE:External perimeter
G1 F1200
G1 X144.816 Y106.503 E.01566
G1 X144.625 Y106.964 E.01566
G1 X144.321 Y107.361 E.01566
G1 X143.925 Y107.665 E.01566
G1 X143.463 Y107.856 E.01566
G1 X142.968 Y107.921 E.01566
G1 X142.473 Y107.856 E.01566
G1 X142.011 Y107.665 E.01566
G1 X141.615 Y107.361 E.01566
G1 X141.311 Y106.964 E.01566
G1 X141.12 Y106.503 E.01566
G1 X141.054 Y106.008 E.01566
G1 X141.12 Y105.512 E.01566
G1 X141.311 Y105.051 E.01566
G1 X141.615 Y104.655 E.01566
G1 X142.011 Y104.351 E.01566
G1 X142.473 Y104.159 E.01566
G1 X142.927 Y104.1 E.01436
G1 X143.461 Y104.158 E.01686
G1 X143.925 Y104.351 E.01573
G1 X144.321 Y104.655 E.01566
G1 X144.625 Y105.051 E.01566
G1 X144.816 Y105.512 E.01566
G1 X144.874 Y105.948 E.01378
M204 S1000
G1 X145.228 Y106.208 F10800
;WIPE_START
G1 F8640
G1 X144.816 Y106.503 E-.12878
G1 X144.625 Y106.964 E-.11534
G1 X144.321 Y107.361 E-.11534
G1 X143.925 Y107.665 E-.11534
G1 X143.463 Y107.856 E-.11534
G1 X142.968 Y107.921 E-.11534
G1 X142.473 Y107.856 E-.11535
G1 X142.011 Y107.665 E-.11534
G1 X141.964 Y107.628 E-.01382
;WIPE_END
G1 E-.05 F2100
G1 Z.4 F720
G1 X136.928 Y106.008 F10800
G1 Z.2 F720
G1 E1 F2100
M204 S800
;TYPE:Perimeter
G1 F1200
G1 X136.85 Y106.601 E.01878
G1 X136.621 Y107.155 E.01878
G1 X136.257 Y107.63 E.01878
G1 X135.782 Y107.994 E.01878
G1 X135.228 Y108.223 E.01878
G1 X134.635 Y108.302 E.01878
G1 X134.041 Y108.223 E.01878
G1 X133.488 Y107.994 E.01878
G1 X133.013 Y107.63 E.01878
G1 X132.648 Y107.155 E.01878
G1 X132.419 Y106.601 E.01878
G1 X132.341 Y106.008 E.01878
G1 X132.419 Y105.414 E.01878
G1 X132.648 Y104.861 E.01878
G1 X133.013 Y104.386 E.01878
G1 X133.488 Y104.021 E.01878
G1 X134.041 Y103.792 E.01878
G1 X134.589 Y103.72 E.01734
G1 X135.222 Y103.79 E.01997
G1 X135.782 Y104.021 E.01897
G1 X136.257 Y104.386 E.01878
G1 X136.621 Y104.861 E.01878
G1 X136.85 Y105.414 E.01878
G1 X136.921 Y105.948 E.01689
M204 S1000
G1 X136.548 Y106.008 F10800
M204 S800
;TYPE:External perimeter
G1 F1200
G1 X136.483 Y106.503 E.01566
G1 X136.292 Y106.964 E.01566
G1 X135.988 Y107.361 E.01566
G1 X135.591 Y107.665 E.01566
G1 X135.13 Y107.856 E.01566
G1 X134.635 Y107.921 E.01566
G1 X134.139 Y107.856 E.01566
G1 X133.678 Y107.665 E.01566
G1 X133.282 Y107.361 E.01566
G1 X132.977 Y106.964 E.01566
G1 X132.786 Y106.503 E.01566
G1 X132.721 Y106.008 E.01566
G1 X132.786 Y105.512 E.01566
G1 X132.977 Y105.051 E.01566
G1 X133.282 Y104.655 E.01566
G1 X133.678 Y104.351 E.01566
G1 X134.139 Y104.159 E.01566
G1 X134.593 Y104.1 E.01436
G1 X135.128 Y104.158 E.01686
G1 X135.591 Y104.351 E.01573
G1 X135.988 Y104.655 E.01566
G1 X136.292 Y105.051 E.01566
G1 X136.483 Y105.512 E.01566
G1 X136.54 Y105.948 E.01378
M204 S1000
G1 X136.895 Y106.208 F10800
;WIPE_START
G1 F8640
G1 X136.483 Y106.503 E-.12878
G1 X136.292 Y106.964 E-.11534
G1 X135.988 Y107.361 E-.11534
G1 X135.591 Y107.665 E-.11534
G1 X135.13 Y107.856 E-.11534
G1 X134.635 Y107.921 E-.11535
G1 X134.139 Y107.856 E-.11535
G1 X133.678 Y107.665 E-.11534
G1 X133.63 Y107.628 E-.01382
;WIPE_END
G1 E-.05 F2100
G1 Z.4 F720
G1 X165.674 Y106.008 F10800
G1 Z.2 F720
G1 E1 F2100
M204 S800
;TYPE:Perimeter
G1 F1200
G1 X165.752 Y105.414 E.01878
G1 X165.981 Y104.861 E.01878
G1 X166.346 Y104.386 E.01878
G1 X166.821 Y104.021 E.01878
G1 X167.374 Y103.792 E.01878
G1 X167.923 Y103.72 E.01734
G1 X168.556 Y103.79 E.01997
G1 X169.115 Y104.021 E.01897
G1 X169.59 Y104.386 E.01878
G1 X169.955 Y104.861 E.01878
G1 X170.184 Y105.414 E.01878
G1 X170.262 Y106.008 E.01878
G1 X170.184 Y106.601 E.01878
G1 X169.955 Y107.155 E.01878
G1 X169.59 Y107.63 E.01878
G1 X169.115 Y107.994 E.01878
G1 X168.562 Y108.223 E.01878
G1 X167.968 Y108.302 E.01878
G1 X167.374 Y108.223 E.01878
G1 X166.821 Y107.994 E.01878
G1 X166.346 Y107.63 E.01878
G1 X165.981 Y107.155 E.01878
G1 X165.752 Y106.601 E.01878
G1 X165.682 Y106.067 E.01689
M204 S1000
G1 X166.054 Y106.008 F10800
M204 S800
;TYPE:External perimeter
G1 F1200
G1 X166.12 Y105.512 E.01566
G1 X166.311 Y105.051 E.01566
G1 X166.615 Y104.655 E.01566
G1 X167.011 Y104.351 E.01566
G1 X167.473 Y104.159 E.01566
G1 X167.927 Y104.1 E.01436
G1 X168.461 Y104.158 E.01686
G1 X168.925 Y104.351 E.01573
G1 X169.321 Y104.655 E.01566
G1 X169.625 Y105.051 E.01566
G1 X169.816 Y105.512 E.01566
G1 X169.881 Y106.008 E.01566
G1 X169.816 Y106.503 E.01566
G1 X169.625 Y106.964 E.01566
G1 X169.321 Y107.361 E.01566
G1 X168.925 Y107.665 E.01566
G1 X168.463 Y107.856 E.01566
G1 X167.968 Y107.921 E.01566
G1 X167.473 Y107.856 E.01566
G1 X167.011 Y107.665 E.01566
G1 X166.615 Y107.361 E.01566
G1 X166.311 Y106.964 E.01566
G1 X166.12 Y106.503 E.01566
G1 X166.062 Y106.067 E.01378
M204 S1000
G1 X165.708 Y105.808 F10800
;WIPE_START
G1 F8640
G1 X166.12 Y105.512 E-.12878
G1 X166.311 Y105.051 E-.11534
G1 X166.615 Y104.655 E-.11534
G1 X167.011 Y104.351 E-.11534
G1 X167.473 Y104.159 E-.11534
G1 X167.927 Y104.1 E-.10573
G1 X168.461 Y104.158 E-.12415
G1 X168.925 Y104.351 E-.11587
G1 X168.973 Y104.388 E-.0141
;WIPE_END
G1 E-.05 F2100
G1 Z.4 F720
G1 X174.007 Y106.008 F10800
G1 Z.2 F720
G1 E1 F2100
M204 S800
;TYPE:Perimeter
G1 F1200
G1 X174.086 Y105.414 E.01878
G1 X174.315 Y104.861 E.01878
G1 X174.679 Y104.386 E.01878
G1 X175.154 Y104.021 E.01878
G1 X175.708 Y103.792 E.01878
G1 X176.256 Y103.72 E.01734
G1 X176.889 Y103.79 E.01997
G1 X177.448 Y104.021 E.01897
G1 X177.923 Y104.386 E.01878
G1 X178.288 Y104.861 E.01878
G1 X178.517 Y105.414 E.01878
G1 X178.595 Y106.008 E.01878
G1 X178.517 Y106.601 E.01878
G1 X178.288 Y107.155 E.01878
G1 X177.923 Y107.63 E.01878
G1 X177.448 Y107.994 E.01878
G1 X176.895 Y108.223 E.01878
G1 X176.301 Y108.302 E.01878
G1 X175.708 Y108.223 E.01878
G1 X175.154 Y107.994 E.01878
G1 X174.679 Y107.63 E.01878
G1 X174.315 Y107.155 E.01878
G1 X174.086 Y106.601 E.01878
G1 X174.015 Y106.067 E.01689
M204 S1000
G1 X174.388 Y106.008 F10800
M204 S800
;TYPE:External perimeter
G1 F1200
G1 X174.453 Y105.512 E.01566
G1 X174.644 Y105.051 E.01566
G1 X174.948 Y104.655 E.01566
G1 X175.345 Y104.351 E.01566
G1 X175.806 Y104.159 E.01566
G1 X176.26 Y104.1 E.01436
G1 X176.794 Y104.158 E.01686
G1 X177.258 Y104.351 E.01573
G1 X177.654 Y104.655 E.01566
G1 X177.958 Y105.051 E.01566
G1 X178.15 Y105.512 E.01566
G1 X178.215 Y106.008 E.01566
G1 X178.15 Y106.503 E.01566
G1 X177.958 Y106.964 E.01566
G1 X177.654 Y107.361 E.01566
G1 X177.258 Y107.665 E.01566
G1 X176.797 Y107.856 E.01566
G1 X176.301 Y107.921 E.01566
G1 X175.806 Y107.856 E.01566
G1 X175.345 Y107.665 E.01566
G1 X174.948 Y107.361 E.01566
G1 X174.644 Y106.964 E.01566
G1 X174.453 Y106.503 E.01566
G1 X174.396 Y106.067 E.01378
M204 S1000
G1 X174.041 Y105.808 F10800
;WIPE_START
G1 F8640
G1 X174.453 Y105.512 E-.12878
G1 X174.644 Y105.051 E-.11534
G1 X174.948 Y104.655 E-.11534
G1 X175.345 Y104.351 E-.11535
G1 X175.806 Y104.159 E-.11534
G1 X176.26 Y104.1 E-.10573
G1 X176.794 Y104.158 E-.12415
G1 X177.258 Y104.351 E-.11587
G1 X177.307 Y104.388 E-.0141
;WIPE_END
G1 E-.05 F2100
M73 Q1 S91
G1 Z.4 F720
G1 X182.341 Y106.008 F10800
G1 Z.2 F720
M73 P1 R90
G1 E1 F2100
M204 S800
;TYPE:Perimeter
G1 F1200
G1 X182.419 Y105.414 E.01878
G1 X182.648 Y104.861 E.01878
G1 X183.013 Y104.386 E.01878
G1 X183.488 Y104.021 E.01878
G1 X184.041 Y103.792 E.01878
G1 X184.589 Y103.72 E.01734
G1 X185.222 Y103.79 E.01997
G1 X185.782 Y104.021 E.01897
G1 X186.257 Y104.386 E.01878
G1 X186.621 Y104.861 E.01878
G1 X186.85 Y105.414 E.01878
G1 X186.928 Y106.008 E.01878
G1 X186.85 Y106.601 E.01878
G1 X186.621 Y107.155 E.01878
G1 X186.257 Y107.63 E.01878
G1 X185.782 Y107.994 E.01878
G1 X185.228 Y108.223 E.01878
G1 X184.635 Y108.302 E.01878
G1 X184.041 Y108.223 E.01878
G1 X183.488 Y107.994 E.01878
G1 X183.013 Y107.63 E.01878
G1 X182.648 Y107.155 E.01878
G1 X182.419 Y106.601 E.01878
G1 X182.349 Y106.067 E.01689
M204 S1000
G1 X182.721 Y106.008 F10800
M204 S800
;TYPE:External perimeter
G1 F1200
G1 X182.786 Y105.512 E.01566
G1 X182.977 Y105.051 E.01566
G1 X183.282 Y104.655 E.01566
G1 X183.678 Y104.351 E.01566
G1 X184.139 Y104.159 E.01566
G1 X184.593 Y104.1 E.01436
G1 X185.128 Y104.158 E.01686
G1 X185.591 Y104.351 E.01573
G1 X185.988 Y104.655 E.01566
G1 X186.292 Y105.051 E.01566
G1 X186.483 Y105.512 E.01566
G1 X186.548 Y106.008 E.01566
G1 X186.483 Y106.503 E.01566
G1 X186.292 Y106.964 E.01566
G1 X185.988 Y107.361 E.01566
G1 X185.591 Y107.665 E.01566
G1 X185.13 Y107.856 E.01566
G1 X184.635 Y107.921 E.01566
G1 X184.139 Y107.856 E.01566
G1 X183.678 Y107.665 E.01566
G1 X183.282 Y107.361 E.01566
G1 X182.977 Y106.964 E.01566
