; generated by PrusaSlicer 2.4.1+win64 on 2022-05-12 at 22:50:11 UTC

; 

; external perimeters extrusion width = 0.60mm
; perimeters extrusion width = 0.50mm
; infill extrusion width = 0.50mm
; solid infill extrusion width = 0.50mm
; top infill extrusion width = 0.45mm
; first layer extrusion width = 0.42mm

; external perimeters extrusion width = 0.60mm
; perimeters extrusion width = 0.50mm
; infill extrusion width = 0.50mm
; solid infill extrusion width = 0.50mm
; top infill extrusion width = 0.45mm
; first layer extrusion width = 0.42mm

; external perimeters extrusion width = 0.60mm
; perimeters extrusion width = 0.50mm
; infill extrusion width = 0.50mm
; solid infill extrusion width = 0.50mm
; top infill extrusion width = 0.45mm
; first layer extrusion width = 0.42mm

; external perimeters extrusion width = 0.60mm
; perimeters extrusion width = 0.50mm
; infill extrusion width = 0.50mm
; solid infill extrusion width = 0.50mm
; top infill extrusion width = 0.45mm
; first layer extrusion width = 0.42mm

; external perimeters extrusion width = 0.60mm
; perimeters extrusion width = 0.50mm
; infill extrusion width = 0.50mm
; solid infill extrusion width = 0.50mm
; top infill extrusion width = 0.45mm
; first layer extrusion width = 0.42mm

M73 P0 R202
M73 Q0 S204
M201 X1000 Y1000 Z200 E5000 ; sets maximum accelerations, mm/sec^2
M203 X200 Y200 Z12 E120 ; sets maximum feedrates, mm / sec
M204 P1250 R1250 T1250 ; sets acceleration (P, T) and retract acceleration (R), mm/sec^2
M205 X8.00 Y8.00 Z0.40 E4.50 ; sets the jerk limits, mm/sec
M205 S0 T0 ; sets the minimum extruding and travel feed rate, mm/sec
M107
;TYPE:Custom
M862.3 P "MK3SMMU2S" ; printer model check
M862.1 P0.4 ; nozzle diameter check
M115 U3.10.1 ; tell printer latest fw version
G90 ; use absolute coordinates
M83 ; extruder relative mode
M104 S230 ; set extruder temp
M140 S85 ; set bed temp
Tx
M190 S85 ; wait for bed temp
M109 S230 ; wait for extruder temp
G28 W ; home all without mesh bed level
G80 ; mesh bed leveling

;go outside print area
G1 Y-3 F1000
G1 Z0.4 F1000
; select extruder
Tc
; purge line
G1 X55 F2000
G1 Z0.3 F1000
G92 E0
G1 X240 E25 F2200
G1 Y-2 F1000
M73 Q0 S203
G1 X55 E25 F1400
G1 Z0.2 F1000
G1 X5 E4 F1000

M221 S95
G92 E0

; Don't change E values below. Excessive value can damage the printer.

M907 E538 ; set extruder motor current
G21 ; set units to millimeters
G90 ; use absolute coordinates
M83 ; use relative distances for extrusion
M900 K0.08 ; Filament gcode LA 1.5
M900 K45 ; Filament gcode LA 1.0
M107
;LAYER_CHANGE
;Z:0.2
;HEIGHT:0.2
;BEFORE_LAYER_CHANGE
G92 E0.0
;0.2


G1 E-1 F2100
G1 Z.2 F720
;AFTER_LAYER_CHANGE
;0.2
G1 Z.4
G1 X36.312 Y42.261 F10800
G1 Z.2 F720
G1 E1 F2100
M204 S800
;TYPE:Skirt/Brim
;WIDTH:0.42
G1 F1200
G1 X37.087 Y41.996 E.02569
G1 X128 Y27.811 E2.88499
G1 X242.443 Y27.811 E3.58829
G1 X243.75 Y28.203 E.04278
G1 X244.627 Y29.249 E.04278
G1 X244.82 Y30.188 E.03008
G1 X244.82 Y114.788 E2.65257
G1 X244.768 Y115.287 E.01572
G1 X230.822 Y180.31 E2.08513
G1 X230.165 Y181.506 E.04278
G1 X228.498 Y182.189 E.05649
G1 X118.054 Y182.189 E3.46287
G1 X7.249 Y167.745 E3.50362
G1 X6.004 Y167.188 E.04278
M73 P0 R201
G1 X5.18 Y165.388 E.06206
G1 X5.18 Y100.788 E2.02549
G1 X5.456 Y99.676 E.03595
G1 X35.354 Y43.232 E2.00269
G1 X36.27 Y42.303 E.0409
M204 S1000
; printing object Bracket2.stl id:3 copy 0
;WIPE_START
G1 F8640
G1 X37.087 Y41.996 E-.20166
G1 X40.29 Y41.497 E-.74834
;WIPE_END
G1 E-.05 F2100
G1 Z.4 F720
G1 X118.842 Y176.43 F10800
G1 Z.2 F720
G1 E1 F2100
M204 S800
;TYPE:Perimeter
G1 F1200
G1 X128.39 Y176.43 E.29938
G1 X148.39 Y155.599 E.90546
G1 X198.161 Y155.599 E1.56055
G1 X218.161 Y176.518 E.90744
G1 X227.711 Y176.518 E.29941
M73 Q0 S202
G1 X227.711 Y179.025 E.07859
G1 X215.818 Y179.025 E.37288
G1 X196.697 Y159.025 E.86757
G1 X149.85 Y159.025 E1.46886
G1 X130.648 Y179.025 E.86931
G1 X118.842 Y179.025 E.37019
G1 X118.842 Y176.49 E.07946
M204 S1000
G1 X118.464 Y176.053 F10800
M204 S800
;TYPE:External perimeter
G1 F1200
G1 X128.229 Y176.053 E.30617
G1 X148.229 Y155.222 E.90546
G1 X198.323 Y155.222 E1.57064
G1 X218.323 Y176.141 E.90744
G1 X228.088 Y176.141 E.30618
G1 X228.088 Y179.402 E.10224
G1 X215.657 Y179.402 E.38976
G1 X196.536 Y159.402 E.86757
G1 X150.011 Y159.402 E1.45877
G1 X130.809 Y179.402 E.86931
G1 X118.464 Y179.402 E.38706
G1 X118.464 Y176.113 E.10311
M204 S1000
G1 X118.863 Y176.089 F10800
;WIPE_START
G1 F8640
G1 X122.579 Y176.088 E-.95
;WIPE_END
G1 E-.05 F2100
G1 Z.4 F720
G1 X227.598 Y177.394 F10800
G1 Z.2 F720
G1 E1 F2100
M204 S800
;TYPE:Solid infill
;WIDTH:0.420266
G1 F1200
G1 X227.004 Y176.801 E.02632
G1 X226.471 Y176.801 E.01674
G1 X227.428 Y177.758 E.04247
G1 X227.428 Y178.292 E.01674
G1 X225.937 Y176.801 E.06615
G1 X225.404 Y176.801 E.01674
G1 X227.345 Y178.742 E.08613
G1 X226.811 Y178.742 E.01674
G1 X224.87 Y176.801 E.08613
G1 X224.336 Y176.801 E.01674
G1 X226.277 Y178.742 E.08613
G1 X225.744 Y178.742 E.01674
G1 X223.803 Y176.801 E.08613
G1 X223.269 Y176.801 E.01674
G1 X225.21 Y178.742 E.08613
G1 X224.676 Y178.742 E.01674
G1 X222.735 Y176.801 E.08613
G1 X222.202 Y176.801 E.01674
G1 X224.143 Y178.742 E.08613
G1 X223.609 Y178.742 E.01674
G1 X221.668 Y176.801 E.08613
G1 X221.134 Y176.801 E.01674
G1 X223.075 Y178.742 E.08613
G1 X222.542 Y178.742 E.01674
G1 X220.601 Y176.801 E.08613
G1 X220.067 Y176.801 E.01674
G1 X222.008 Y178.742 E.08613
G1 X221.474 Y178.742 E.01674
G1 X219.533 Y176.801 E.08613
G1 X219 Y176.801 E.01674
G1 X220.941 Y178.742 E.08613
G1 X220.407 Y178.742 E.01674
G1 X218.466 Y176.801 E.08613
G1 X218.041 Y176.801 E.01335
G1 X208.781 Y167.116 E.42043
G1 X197.547 Y155.882 E.49849
G1 X197.013 Y155.882 E.01674
G1 X219.873 Y178.742 E1.01438
G1 X219.34 Y178.742 E.01674
G1 X196.48 Y155.882 E1.01438
G1 X195.946 Y155.882 E.01674
G1 X218.806 Y178.742 E1.01438
G1 X218.273 Y178.742 E.01674
G1 X195.412 Y155.882 E1.01438
G1 X194.879 Y155.882 E.01674
G1 X217.739 Y178.742 E1.01438
G1 X217.205 Y178.742 E.01674
G1 X194.345 Y155.882 E1.01438
G1 X193.811 Y155.882 E.01674
G1 X216.672 Y178.742 E1.01438
G1 X216.138 Y178.742 E.01674
G1 X206.271 Y168.875 E.43783
M204 S1000
;WIPE_START
G1 F8640
G1 X209.18 Y171.784 E-.95
;WIPE_END
G1 E-.05 F2100
G1 Z.4 F720
G1 X196.308 Y158.912 F10800
G1 Z.2 F720
G1 E1 F2100
M204 S800
G1 F1200
G1 X193.278 Y155.882 E.13445
G1 X192.744 Y155.882 E.01674
G1 X195.604 Y158.742 E.12692
G1 X195.071 Y158.742 E.01674
G1 X192.21 Y155.882 E.12692
G1 X191.677 Y155.882 E.01674
G1 X194.537 Y158.742 E.12692
G1 X194.003 Y158.742 E.01674
G1 X191.143 Y155.882 E.12692
G1 X190.609 Y155.882 E.01674
G1 X193.47 Y158.742 E.12692
G1 X192.936 Y158.742 E.01674
G1 X190.076 Y155.882 E.12692
G1 X189.542 Y155.882 E.01674
G1 X192.402 Y158.742 E.12692
G1 X191.869 Y158.742 E.01674
G1 X189.008 Y155.882 E.12692
G1 X188.475 Y155.882 E.01674
G1 X191.335 Y158.742 E.12692
G1 X190.801 Y158.742 E.01674
G1 X187.941 Y155.882 E.12692
G1 X187.408 Y155.882 E.01674
G1 X190.268 Y158.742 E.12692
G1 X189.734 Y158.742 E.01674
G1 X186.874 Y155.882 E.12692
G1 X186.34 Y155.882 E.01674
G1 X189.2 Y158.742 E.12692
G1 X188.667 Y158.742 E.01674
G1 X185.807 Y155.882 E.12692
G1 X185.273 Y155.882 E.01674
G1 X188.133 Y158.742 E.12692
G1 X187.6 Y158.742 E.01674
G1 X184.739 Y155.882 E.12692
G1 X184.206 Y155.882 E.01674
G1 X187.066 Y158.742 E.12692
G1 X186.532 Y158.742 E.01674
G1 X183.672 Y155.882 E.12692
G1 X183.138 Y155.882 E.01674
G1 X185.999 Y158.742 E.12692
G1 X185.465 Y158.742 E.01674
G1 X182.605 Y155.882 E.12692
G1 X182.071 Y155.882 E.01674
G1 X184.931 Y158.742 E.12692
G1 X184.398 Y158.742 E.01674
G1 X181.537 Y155.882 E.12692
G1 X181.004 Y155.882 E.01674
G1 X183.864 Y158.742 E.12692
G1 X183.33 Y158.742 E.01674
G1 X180.47 Y155.882 E.12692
G1 X179.936 Y155.882 E.01674
G1 X182.797 Y158.742 E.12692
G1 X182.263 Y158.742 E.01674
G1 X179.403 Y155.882 E.12692
G1 X178.869 Y155.882 E.01674
G1 X181.729 Y158.742 E.12692
G1 X181.196 Y158.742 E.01674
G1 X178.336 Y155.882 E.12692
G1 X177.802 Y155.882 E.01674
G1 X180.662 Y158.742 E.12692
G1 X180.128 Y158.742 E.01674
G1 X177.268 Y155.882 E.12692
M73 P0 R200
G1 X176.735 Y155.882 E.01674
G1 X179.595 Y158.742 E.12692
G1 X179.061 Y158.742 E.01674
G1 X176.201 Y155.882 E.12692
G1 X175.667 Y155.882 E.01674
G1 X178.528 Y158.742 E.12692
G1 X177.994 Y158.742 E.01674
G1 X175.134 Y155.882 E.12692
G1 X174.6 Y155.882 E.01674
G1 X177.46 Y158.742 E.12692
G1 X176.927 Y158.742 E.01674
G1 X174.066 Y155.882 E.12692
G1 X173.533 Y155.882 E.01674
G1 X176.393 Y158.742 E.12692
G1 X175.859 Y158.742 E.01674
G1 X172.999 Y155.882 E.12692
G1 X172.465 Y155.882 E.01674
G1 X175.326 Y158.742 E.12692
G1 X174.792 Y158.742 E.01674
G1 X171.932 Y155.882 E.12692
G1 X171.398 Y155.882 E.01674
G1 X174.258 Y158.742 E.12692
G1 X173.725 Y158.742 E.01674
G1 X170.864 Y155.882 E.12692
G1 X170.331 Y155.882 E.01674
G1 X173.191 Y158.742 E.12692
G1 X172.657 Y158.742 E.01674
G1 X169.797 Y155.882 E.12692
G1 X169.264 Y155.882 E.01674
G1 X172.124 Y158.742 E.12692
G1 X171.59 Y158.742 E.01674
G1 X168.73 Y155.882 E.12692
G1 X168.196 Y155.882 E.01674
G1 X171.056 Y158.742 E.12692
G1 X170.523 Y158.742 E.01674
G1 X167.663 Y155.882 E.12692
G1 X167.129 Y155.882 E.01674
G1 X169.989 Y158.742 E.12692
G1 X169.456 Y158.742 E.01674
G1 X166.595 Y155.882 E.12692
G1 X166.062 Y155.882 E.01674
G1 X168.922 Y158.742 E.12692
G1 X168.388 Y158.742 E.01674
G1 X165.528 Y155.882 E.12692
G1 X164.994 Y155.882 E.01674
G1 X167.855 Y158.742 E.12692
G1 X167.321 Y158.742 E.01674
G1 X164.461 Y155.882 E.12692
G1 X163.927 Y155.882 E.01674
G1 X166.787 Y158.742 E.12692
G1 X166.254 Y158.742 E.01674
G1 X163.393 Y155.882 E.12692
G1 X162.86 Y155.882 E.01674
G1 X165.72 Y158.742 E.12692
G1 X165.186 Y158.742 E.01674
G1 X162.326 Y155.882 E.12692
G1 X161.792 Y155.882 E.01674
G1 X164.653 Y158.742 E.12692
G1 X164.119 Y158.742 E.01674
G1 X161.259 Y155.882 E.12692
G1 X160.725 Y155.882 E.01674
G1 X163.585 Y158.742 E.12692
G1 X163.052 Y158.742 E.01674
G1 X160.191 Y155.882 E.12692
G1 X159.658 Y155.882 E.01674
G1 X162.518 Y158.742 E.12692
G1 X161.984 Y158.742 E.01674
G1 X159.124 Y155.882 E.12692
G1 X158.591 Y155.882 E.01674
G1 X161.451 Y158.742 E.12692
G1 X160.917 Y158.742 E.01674
G1 X158.057 Y155.882 E.12692
G1 X157.523 Y155.882 E.01674
G1 X160.384 Y158.742 E.12692
G1 X159.85 Y158.742 E.01674
G1 X156.99 Y155.882 E.12692
G1 X156.456 Y155.882 E.01674
G1 X159.316 Y158.742 E.12692
G1 X158.783 Y158.742 E.01674
G1 X155.922 Y155.882 E.12692
G1 X155.389 Y155.882 E.01674
G1 X158.249 Y158.742 E.12692
G1 X157.715 Y158.742 E.01674
G1 X154.855 Y155.882 E.12692
G1 X154.321 Y155.882 E.01674
G1 X157.182 Y158.742 E.12692
G1 X156.648 Y158.742 E.01674
G1 X153.788 Y155.882 E.12692
G1 X153.254 Y155.882 E.01674
G1 X156.114 Y158.742 E.12692
G1 X155.581 Y158.742 E.01674
G1 X152.72 Y155.882 E.12692
G1 X152.187 Y155.882 E.01674
G1 X155.047 Y158.742 E.12692
G1 X154.513 Y158.742 E.01674
G1 X151.653 Y155.882 E.12692
G1 X151.119 Y155.882 E.01674
G1 X153.98 Y158.742 E.12692
G1 X153.446 Y158.742 E.01674
G1 X150.586 Y155.882 E.12692
G1 X150.052 Y155.882 E.01674
G1 X152.912 Y158.742 E.12692
G1 X152.379 Y158.742 E.01674
G1 X149.519 Y155.882 E.12692
G1 X148.985 Y155.882 E.01674
G1 X151.845 Y158.742 E.12692
G1 X151.311 Y158.742 E.01674
G1 X148.481 Y155.912 E.12558
G1 X148.22 Y156.184 E.01184
G1 X150.778 Y158.742 E.1135
G1 X150.244 Y158.742 E.01674
M73 Q0 S201
G1 X147.959 Y156.456 E.10142
G1 X147.697 Y156.729 E.01184
M73 Q1 S201
G1 X149.72 Y158.751 E.08976
G1 X149.459 Y159.024 E.01184
M73 P1 R200
G1 X147.436 Y157.001 E.08976
G1 X147.174 Y157.273 E.01184
G1 X149.197 Y159.296 E.08976
G1 X148.936 Y159.568 E.01184
G1 X146.913 Y157.545 E.08976
G1 X146.652 Y157.818 E.01184
G1 X148.675 Y159.84 E.08976
G1 X148.413 Y160.113 E.01184
G1 X146.39 Y158.09 E.08976
G1 X146.129 Y158.362 E.01184
G1 X148.152 Y160.385 E.08976
G1 X147.89 Y160.657 E.01184
G1 X145.868 Y158.634 E.08976
G1 X145.606 Y158.907 E.01184
G1 X147.629 Y160.93 E.08976
G1 X147.368 Y161.202 E.01184
G1 X145.345 Y159.179 E.08976
G1 X145.083 Y159.451 E.01184
G1 X147.106 Y161.474 E.08976
G1 X146.845 Y161.746 E.01184
G1 X144.822 Y159.723 E.08976
G1 X144.561 Y159.996 E.01184
G1 X146.583 Y162.019 E.08976
G1 X146.322 Y162.291 E.01184
G1 X144.299 Y160.268 E.08976
G1 X144.038 Y160.54 E.01184
G1 X146.061 Y162.563 E.08976
G1 X145.799 Y162.835 E.01184
G1 X143.776 Y160.812 E.08976
G1 X143.515 Y161.085 E.01184
G1 X145.538 Y163.108 E.08976
G1 X145.277 Y163.38 E.01184
G1 X143.254 Y161.357 E.08976
G1 X142.992 Y161.629 E.01184
G1 X145.015 Y163.652 E.08976
G1 X144.754 Y163.924 E.01184
G1 X142.731 Y161.901 E.08976
G1 X142.469 Y162.174 E.01184
G1 X144.492 Y164.197 E.08976
G1 X144.231 Y164.469 E.01184
G1 X142.208 Y162.446 E.08976
G1 X141.947 Y162.718 E.01184
G1 X143.97 Y164.741 E.08976
G1 X143.708 Y165.013 E.01184
G1 X141.685 Y162.99 E.08976
G1 X141.424 Y163.263 E.01184
G1 X143.447 Y165.286 E.08976
G1 X143.185 Y165.558 E.01184
G1 X141.163 Y163.535 E.08976
G1 X140.901 Y163.807 E.01184
G1 X142.924 Y165.83 E.08976
G1 X142.663 Y166.102 E.01184
G1 X140.64 Y164.08 E.08976
G1 X140.378 Y164.352 E.01184
G1 X142.401 Y166.375 E.08976
G1 X142.14 Y166.647 E.01184
G1 X140.117 Y164.624 E.08976
G1 X139.856 Y164.896 E.01184
G1 X141.878 Y166.919 E.08976
G1 X141.617 Y167.191 E.01184
G1 X139.594 Y165.169 E.08976
G1 X139.333 Y165.441 E.01184
G1 X141.356 Y167.464 E.08976
G1 X141.094 Y167.736 E.01184
G1 X139.071 Y165.713 E.08976
G1 X138.81 Y165.985 E.01184
G1 X140.833 Y168.008 E.08976
G1 X140.572 Y168.28 E.01184
G1 X138.549 Y166.258 E.08976
G1 X138.287 Y166.53 E.01184
G1 X140.31 Y168.553 E.08976
G1 X140.049 Y168.825 E.01184
G1 X138.026 Y166.802 E.08976
G1 X137.764 Y167.074 E.01184
G1 X139.787 Y169.097 E.08976
G1 X139.526 Y169.37 E.01184
G1 X137.503 Y167.347 E.08976
G1 X137.242 Y167.619 E.01184
G1 X139.265 Y169.642 E.08976
G1 X139.003 Y169.914 E.01184
G1 X136.98 Y167.891 E.08976
G1 X136.719 Y168.163 E.01184
G1 X138.742 Y170.186 E.08976
G1 X138.48 Y170.459 E.01184
G1 X136.457 Y168.436 E.08976
G1 X136.196 Y168.708 E.01184
G1 X138.219 Y170.731 E.08976
G1 X137.958 Y171.003 E.01184
G1 X135.935 Y168.98 E.08976
G1 X135.673 Y169.252 E.01184
G1 X137.696 Y171.275 E.08976
G1 X137.435 Y171.548 E.01184
G1 X135.412 Y169.525 E.08976
G1 X135.151 Y169.797 E.01184
G1 X137.173 Y171.82 E.08976
G1 X136.912 Y172.092 E.01184
G1 X134.889 Y170.069 E.08976
G1 X134.628 Y170.341 E.01184
G1 X136.651 Y172.364 E.08976
G1 X136.389 Y172.637 E.01184
G1 X134.366 Y170.614 E.08976
G1 X134.105 Y170.886 E.01184
G1 X136.128 Y172.909 E.08976
G1 X135.867 Y173.181 E.01184
G1 X133.844 Y171.158 E.08976
G1 X133.582 Y171.43 E.01184
G1 X135.605 Y173.453 E.08976
G1 X135.344 Y173.726 E.01184
G1 X133.321 Y171.703 E.08976
G1 X133.059 Y171.975 E.01184
G1 X135.082 Y173.998 E.08976
G1 X134.821 Y174.27 E.01184
G1 X132.798 Y172.247 E.08976
G1 X132.537 Y172.519 E.01184
G1 X134.56 Y174.542 E.08976
G1 X134.298 Y174.815 E.01184
G1 X132.275 Y172.792 E.08976
G1 X132.014 Y173.064 E.01184
G1 X134.037 Y175.087 E.08976
G1 X133.775 Y175.359 E.01184
G1 X131.752 Y173.336 E.08976
G1 X131.491 Y173.609 E.01184
G1 X133.514 Y175.631 E.08976
G1 X133.253 Y175.904 E.01184
G1 X131.23 Y173.881 E.08976
G1 X130.968 Y174.153 E.01184
G1 X132.991 Y176.176 E.08976
G1 X132.73 Y176.448 E.01184
G1 X130.707 Y174.425 E.08976
G1 X130.446 Y174.698 E.01184
G1 X132.468 Y176.72 E.08976
G1 X132.207 Y176.993 E.01184
G1 X130.184 Y174.97 E.08976
G1 X129.923 Y175.242 E.01184
G1 X131.946 Y177.265 E.08976
G1 X131.684 Y177.537 E.01184
G1 X129.661 Y175.514 E.08976
G1 X129.4 Y175.787 E.01184
G1 X131.423 Y177.81 E.08976
G1 X131.161 Y178.082 E.01184
G1 X129.139 Y176.059 E.08976
G1 X128.877 Y176.331 E.01184
G1 X130.9 Y178.354 E.08976
G1 X130.639 Y178.626 E.01184
G1 X128.616 Y176.603 E.08976
G1 X128.51 Y176.713 E.00477
G1 X128.192 Y176.713 E.00999
G1 X130.221 Y178.742 E.09002
G1 X129.687 Y178.742 E.01674
G1 X127.658 Y176.713 E.09002
G1 X127.125 Y176.713 E.01674
G1 X129.153 Y178.742 E.09002
G1 X128.62 Y178.742 E.01674
G1 X126.591 Y176.713 E.09002
G1 X126.057 Y176.713 E.01674
G1 X128.086 Y178.742 E.09002
G1 X127.552 Y178.742 E.01674
G1 X125.524 Y176.713 E.09002
G1 X124.99 Y176.713 E.01674
G1 X127.019 Y178.742 E.09002
G1 X126.485 Y178.742 E.01674
