; generated by PrusaSlicer 2.4.1+win64 on 2022-05-12 at 18:42:42 UTC

; 

; external perimeters extrusion width = 0.60mm
; perimeters extrusion width = 0.50mm
; infill extrusion width = 0.50mm
; solid infill extrusion width = 0.50mm
; top infill extrusion width = 0.45mm
; first layer extrusion width = 0.42mm

; external perimeters extrusion width = 0.60mm
; perimeters extrusion width = 0.50mm
; infill extrusion width = 0.50mm
; solid infill extrusion width = 0.50mm
; top infill extrusion width = 0.45mm
; first layer extrusion width = 0.42mm

M73 P0 R256
M73 Q0 S257
M201 X1000 Y1000 Z200 E5000 ; sets maximum accelerations, mm/sec^2
M203 X200 Y200 Z12 E120 ; sets maximum feedrates, mm / sec
M204 P1250 R1250 T1250 ; sets acceleration (P, T) and retract acceleration (R), mm/sec^2
M205 X8.00 Y8.00 Z0.40 E4.50 ; sets the jerk limits, mm/sec
M205 S0 T0 ; sets the minimum extruding and travel feed rate, mm/sec
M107
;TYPE:Custom
M862.3 P "MK3SMMU2S" ; printer model check
M862.1 P0.4 ; nozzle diameter check
M115 U3.10.1 ; tell printer latest fw version
G90 ; use absolute coordinates
M83 ; extruder relative mode
M104 S230 ; set extruder temp
M140 S85 ; set bed temp
Tx
M190 S85 ; wait for bed temp
M109 S230 ; wait for extruder temp
G28 W ; home all without mesh bed level
G80 ; mesh bed leveling

;go outside print area
G1 Y-3 F1000
G1 Z0.4 F1000
; select extruder
Tc
; purge line
G1 X55 F2000
G1 Z0.3 F1000
G92 E0
G1 X240 E25 F2200
G1 Y-2 F1000
G1 X55 E25 F1400
G1 Z0.2 F1000
G1 X5 E4 F1000

M221 S95
G92 E0

; Don't change E values below. Excessive value can damage the printer.

M907 E538 ; set extruder motor current
G21 ; set units to millimeters
G90 ; use absolute coordinates
M83 ; use relative distances for extrusion
M900 K0.08 ; Filament gcode LA 1.5
M900 K45 ; Filament gcode LA 1.0
M107
;LAYER_CHANGE
;Z:0.2
;HEIGHT:0.2
;BEFORE_LAYER_CHANGE
G92 E0.0
;0.2


G1 E-1 F2100
G1 Z.2 F720
;AFTER_LAYER_CHANGE
;0.2
G1 Z.4
G1 X6.617 Y27.817 F10800
G1 Z.2 F720
G1 E1 F2100
M204 S800
;TYPE:Skirt/Brim
;WIDTH:0.42
G1 F1200
G1 X7.557 Y27.623 E.03008
G1 X122.197 Y27.631 E3.59446
G1 X242.64 Y37.631 E3.78941
G1 X243.91 Y38.129 E.04278
M73 Q0 S256
G1 X244.697 Y39.244 E.04278
G1 X244.82 Y40 E.02401
G1 X244.82 Y170 E4.07606
G1 X244.429 Y171.307 E.04278
M73 P0 R255
G1 X243.383 Y172.183 E.04278
G1 X242.64 Y172.369 E.02401
G1 X122.197 Y182.369 E3.78941
G1 X7.557 Y182.377 E3.59446
G1 X6.25 Y181.985 E.04278
G1 X5.373 Y180.94 E.04278
G1 X5.18 Y180 E.03008
G1 X5.18 Y30 E4.70314
G1 X5.571 Y28.693 E.04278
G1 X6.571 Y27.855 E.0409
M204 S1000
; printing object Sled2.stl id:1 copy 0
;WIPE_START
G1 F8640
G1 X7.557 Y27.623 E-.23384
G1 X10.658 Y27.623 E-.71616
;WIPE_END
G1 E-.05 F2100
G1 Z.4 F720
G1 X207.692 Y90.097 F10800
G1 Z.2 F720
G1 E1 F2100
M204 S800
;TYPE:Perimeter
G1 F1200
G1 X207.81 Y89.766 E.01102
G1 X208 Y89.438 E.01189
G1 X208.206 Y89.191 E.01008
G1 X208.384 Y89.029 E.00756
G1 X208.639 Y88.855 E.00968
G1 X208.932 Y88.717 E.01017
G1 X209.373 Y88.611 E.01419
G1 X209.714 Y88.602 E.01071
G1 X210.101 Y88.666 E.01229
G1 X210.397 Y88.775 E.00991
G1 X210.797 Y89.022 E.01473
G1 X211.045 Y89.237 E.01028
G1 X211.33 Y89.632 E.01529
G1 X211.483 Y90.013 E.01288
G1 X211.54 Y90.325 E.00993
G1 X211.544 Y90.64 E.00987
G1 X211.476 Y91.008 E.01174
G1 X211.368 Y91.292 E.00952
G1 X211.118 Y91.688 E.01469
G1 X210.943 Y91.893 E.00846
G1 X210.691 Y92.105 E.01033
G1 X210.372 Y92.284 E.01146
G1 X209.905 Y92.423 E.01528
G1 X209.429 Y92.438 E.01495
G1 X209.089 Y92.377 E.01082
G1 X208.772 Y92.262 E.01056
G1 X208.474 Y92.092 E.01077
G1 X208.177 Y91.844 E.01213
G1 X207.954 Y91.576 E.01092
G1 X207.774 Y91.233 E.01215
G1 X207.676 Y90.873 E.0117
G1 X207.641 Y90.501 E.01172
G1 X207.684 Y90.157 E.01087
M204 S1000
G1 X208.061 Y90.185 F10800
M204 S800
;TYPE:External perimeter
G1 F1200
G1 X208.153 Y89.926 E.00865
G1 X208.31 Y89.655 E.0098
G1 X208.479 Y89.453 E.00827
G1 X208.619 Y89.325 E.00592
G1 X208.827 Y89.183 E.0079
G1 X209.058 Y89.074 E.00801
G1 X209.422 Y88.987 E.01175
G1 X209.688 Y88.98 E.00834
G1 X210.004 Y89.032 E.01003
G1 X210.231 Y89.115 E.00759
G1 X210.573 Y89.327 E.01259
G1 X210.765 Y89.494 E.00797
G1 X210.998 Y89.816 E.01247
G1 X211.119 Y90.118 E.01023
G1 X211.163 Y90.361 E.00774
G1 X211.166 Y90.607 E.00772
G1 X211.111 Y90.906 E.00952
G1 X211.029 Y91.123 E.00727
G1 X210.814 Y91.464 E.01265
G1 X210.676 Y91.625 E.00663
G1 X210.475 Y91.794 E.00824
G1 X210.224 Y91.934 E.00902
G1 X209.844 Y92.048 E.01243
G1 X209.457 Y92.06 E.01217
G1 X209.187 Y92.011 E.00858
G1 X208.931 Y91.918 E.00855
G1 X208.69 Y91.781 E.0087
G1 X208.445 Y91.576 E.00999
G1 X208.27 Y91.365 E.00861
G1 X208.127 Y91.094 E.00961
G1 X208.048 Y90.805 E.00939
G1 X208.02 Y90.507 E.0094
G1 X208.053 Y90.245 E.00827
M204 S1000
G1 X207.86 Y89.995 F10800
;WIPE_START
G1 F8640
G1 X208.153 Y89.926 E-.07726
G1 X208.31 Y89.655 E-.0722
G1 X208.479 Y89.453 E-.06088
G1 X208.619 Y89.325 E-.0436
G1 X208.827 Y89.183 E-.0582
G1 X209.058 Y89.074 E-.05902
G1 X209.422 Y88.987 E-.0865
G1 X209.688 Y88.98 E-.06145
G1 X210.004 Y89.032 E-.07388
G1 X210.231 Y89.115 E-.05589
G1 X210.573 Y89.327 E-.09274
G1 X210.765 Y89.494 E-.05871
G1 X210.998 Y89.816 E-.09181
G1 X211.091 Y90.048 E-.05788
;WIPE_END
G1 E-.05 F2100
G1 Z.4 F720
G1 X214.885 Y74.573 F10800
G1 Z.2 F720
G1 E1 F2100
M204 S800
;TYPE:Perimeter
G1 F1200
G1 X214.389 Y74.193 E.01959
G1 X214.009 Y73.697 E.01959
G1 X213.769 Y73.12 E.01959
G1 X213.688 Y72.5 E.01959
G1 X213.769 Y71.88 E.01959
G1 X214.009 Y71.303 E.01959
G1 X214.389 Y70.807 E.01959
G1 X214.885 Y70.427 E.01959
G1 X215.462 Y70.188 E.01959
G1 X216.036 Y70.112 E.01814
G1 X216.696 Y70.185 E.02082
G1 X217.279 Y70.427 E.01979
G1 X217.774 Y70.807 E.01959
G1 X218.155 Y71.303 E.01959
G1 X218.394 Y71.88 E.01959
G1 X218.476 Y72.5 E.01959
G1 X218.394 Y73.12 E.01959
G1 X218.155 Y73.697 E.01959
G1 X217.774 Y74.193 E.01959
G1 X217.279 Y74.573 E.01959
G1 X216.701 Y74.812 E.01959
G1 X216.082 Y74.894 E.01959
G1 X215.462 Y74.812 E.01959
G1 X214.94 Y74.596 E.01771
M204 S1000
G1 X215.075 Y74.244 F10800
M204 S800
;TYPE:External perimeter
G1 F1200
G1 X214.658 Y73.924 E.01648
G1 X214.338 Y73.507 E.01648
G1 X214.137 Y73.021 E.01648
G1 X214.068 Y72.5 E.01648
G1 X214.137 Y71.979 E.01648
G1 X214.338 Y71.493 E.01648
G1 X214.658 Y71.076 E.01648
G1 X215.075 Y70.756 E.01648
G1 X215.561 Y70.555 E.01648
G1 X216.04 Y70.492 E.01515
G1 X216.601 Y70.554 E.0177
G1 X217.088 Y70.756 E.01655
G1 X217.505 Y71.076 E.01648
G1 X217.825 Y71.493 E.01648
G1 X218.027 Y71.979 E.01648
G1 X218.095 Y72.5 E.01648
G1 X218.027 Y73.021 E.01648
G1 X217.825 Y73.507 E.01648
G1 X217.505 Y73.924 E.01648
G1 X217.088 Y74.244 E.01648
G1 X216.603 Y74.445 E.01648
G1 X216.082 Y74.514 E.01648
G1 X215.561 Y74.445 E.01648
G1 X215.13 Y74.267 E.0146
M204 S1000
G1 X214.729 Y74.444 F10800
;WIPE_START
G1 F8640
G1 X214.658 Y73.924 E-.1348
G1 X214.338 Y73.507 E-.12137
G1 X214.137 Y73.021 E-.12137
G1 X214.068 Y72.5 E-.12137
G1 X214.137 Y71.979 E-.12137
G1 X214.338 Y71.493 E-.12137
G1 X214.658 Y71.076 E-.12137
G1 X214.957 Y70.847 E-.08697
;WIPE_END
G1 E-.05 F2100
G1 Z.4 F720
G1 X233.807 Y54.875 F10800
G1 Z.2 F720
G1 E1 F2100
M204 S800
;TYPE:Perimeter
G1 F1200
G1 X233.427 Y54.379 E.01959
G1 X233.188 Y53.801 E.01959
G1 X233.106 Y53.182 E.01959
G1 X233.188 Y52.562 E.01959
G1 X233.427 Y51.985 E.01959
G1 X233.807 Y51.489 E.01959
G1 X234.303 Y51.109 E.01959
G1 X234.88 Y50.87 E.01959
G1 X235.5 Y50.788 E.01959
G1 X236.12 Y50.87 E.01959
G1 X236.697 Y51.109 E.01959
G1 X237.193 Y51.489 E.01959
G1 X237.573 Y51.985 E.01959
G1 X237.812 Y52.562 E.01959
G1 X237.894 Y53.182 E.01959
G1 X237.812 Y53.801 E.01959
G1 X237.573 Y54.379 E.01959
G1 X237.193 Y54.875 E.01959
G1 X236.697 Y55.255 E.01959
G1 X236.12 Y55.494 E.01959
G1 X235.5 Y55.576 E.01959
G1 X234.88 Y55.494 E.01959
G1 X234.303 Y55.255 E.01959
G1 X233.855 Y54.911 E.01771
M204 S1000
G1 X234.076 Y54.606 F10800
M204 S800
;TYPE:External perimeter
G1 F1200
G1 X233.756 Y54.189 E.01648
G1 X233.555 Y53.703 E.01648
G1 X233.486 Y53.182 E.01648
G1 X233.555 Y52.661 E.01648
G1 X233.756 Y52.175 E.01648
G1 X234.076 Y51.758 E.01648
G1 X234.493 Y51.438 E.01648
G1 X234.979 Y51.237 E.01648
G1 X235.5 Y51.168 E.01648
G1 X236.021 Y51.237 E.01648
G1 X236.507 Y51.438 E.01648
G1 X236.924 Y51.758 E.01648
G1 X237.244 Y52.175 E.01648
G1 X237.445 Y52.661 E.01648
G1 X237.514 Y53.182 E.01648
G1 X237.445 Y53.703 E.01648
G1 X237.244 Y54.189 E.01648
G1 X236.924 Y54.606 E.01648
G1 X236.507 Y54.926 E.01648
G1 X236.021 Y55.127 E.01648
G1 X235.5 Y55.195 E.01648
G1 X234.979 Y55.127 E.01648
G1 X234.493 Y54.926 E.01648
G1 X234.124 Y54.642 E.0146
M204 S1000
G1 X233.69 Y54.709 F10800
;WIPE_START
G1 F8640
G1 X233.756 Y54.189 E-.1348
G1 X233.555 Y53.703 E-.12137
G1 X233.486 Y53.182 E-.12137
G1 X233.555 Y52.661 E-.12137
G1 X233.756 Y52.175 E-.12137
G1 X234.076 Y51.758 E-.12137
G1 X234.493 Y51.438 E-.12137
G1 X234.841 Y51.294 E-.08697
;WIPE_END
G1 E-.05 F2100
G1 Z.4 F720
G1 X235.41 Y69.536 F10800
G1 Z.2 F720
G1 E1 F2100
M204 S800
;TYPE:Perimeter
G1 F1200
G1 X236.088 Y69.6 E.02136
G1 X236.647 Y69.832 E.01897
G1 X237.122 Y70.196 E.01878
G1 X237.487 Y70.671 E.01878
G1 X237.698 Y71.182 E.01734
G1 X237.795 Y71.812 E.01997
G1 X237.716 Y72.412 E.01897
G1 X237.487 Y72.965 E.01878
G1 X237.122 Y73.44 E.01878
G1 X236.647 Y73.805 E.01878
G1 X236.094 Y74.034 E.01878
G1 X235.5 Y74.112 E.01878
G1 X234.906 Y74.034 E.01878
G1 X234.353 Y73.805 E.01878
G1 X233.878 Y73.44 E.01878
G1 X233.513 Y72.965 E.01878
G1 X233.284 Y72.412 E.01878
G1 X233.206 Y71.818 E.01878
G1 X233.284 Y71.224 E.01878
G1 X233.513 Y70.671 E.01878
G1 X233.878 Y70.196 E.01878
G1 X234.353 Y69.832 E.01878
G1 X234.906 Y69.602 E.01878
G1 X235.35 Y69.544 E.01403
M204 S1000
G1 X235.459 Y69.91 F10800
M204 S800
;TYPE:External perimeter
G1 F1200
G1 X235.993 Y69.969 E.01686
G1 X236.457 Y70.161 E.01573
G1 X236.853 Y70.465 E.01566
G1 X237.157 Y70.861 E.01566
G1 X237.332 Y71.284 E.01436
G1 X237.414 Y71.816 E.01686
G1 X237.348 Y72.313 E.01573
G1 X237.157 Y72.775 E.01566
G1 X236.853 Y73.171 E.01566
G1 X236.457 Y73.475 E.01566
G1 X235.995 Y73.667 E.01566
G1 X235.5 Y73.732 E.01566
G1 X235.005 Y73.667 E.01566
G1 X234.543 Y73.475 E.01566
G1 X234.147 Y73.171 E.01566
G1 X233.843 Y72.775 E.01566
G1 X233.652 Y72.313 E.01566
G1 X233.586 Y71.818 E.01566
G1 X233.652 Y71.323 E.01566
G1 X233.843 Y70.861 E.01566
G1 X234.147 Y70.465 E.01566
G1 X234.543 Y70.161 E.01566
G1 X235.005 Y69.97 E.01566
G1 X235.399 Y69.918 E.01248
M204 S1000
G1 X235.653 Y69.561 F10800
;WIPE_START
G1 F8640
G1 X235.993 Y69.969 E-.13765
G1 X236.457 Y70.161 E-.11587
G1 X236.853 Y70.465 E-.11534
G1 X237.157 Y70.861 E-.11534
G1 X237.332 Y71.284 E-.10573
G1 X237.414 Y71.816 E-.12415
G1 X237.348 Y72.313 E-.11587
G1 X237.157 Y72.775 E-.11534
G1 X237.145 Y72.791 E-.0047
;WIPE_END
G1 E-.05 F2100
G1 Z.4 F720
G1 X235.409 Y88.173 F10800
G1 Z.2 F720
G1 E1 F2100
M204 S800
;TYPE:Perimeter
G1 F1200
G1 X236.088 Y88.236 E.02136
G1 X236.647 Y88.468 E.01897
G1 X237.122 Y88.833 E.01878
G1 X237.487 Y89.308 E.01878
G1 X237.716 Y89.861 E.01878
G1 X237.794 Y90.455 E.01878
G1 X237.716 Y91.048 E.01878
G1 X237.487 Y91.601 E.01878
G1 X237.122 Y92.077 E.01878
G1 X236.647 Y92.441 E.01878
G1 X236.094 Y92.67 E.01878
G1 X235.5 Y92.748 E.01878
G1 X234.906 Y92.67 E.01878
G1 X234.353 Y92.441 E.01878
G1 X233.878 Y92.077 E.01878
G1 X233.513 Y91.601 E.01878
G1 X233.284 Y91.048 E.01878
G1 X233.206 Y90.455 E.01878
G1 X233.284 Y89.861 E.01878
G1 X233.513 Y89.308 E.01878
G1 X233.878 Y88.833 E.01878
G1 X234.353 Y88.468 E.01878
G1 X234.906 Y88.239 E.01878
G1 X235.35 Y88.18 E.01403
M204 S1000
G1 X235.459 Y88.546 F10800
M204 S800
;TYPE:External perimeter
G1 F1200
G1 X235.993 Y88.605 E.01686
G1 X236.457 Y88.797 E.01573
G1 X236.853 Y89.101 E.01566
G1 X237.157 Y89.498 E.01566
G1 X237.348 Y89.959 E.01566
G1 X237.414 Y90.455 E.01566
G1 X237.348 Y90.95 E.01566
G1 X237.157 Y91.411 E.01566
G1 X236.853 Y91.808 E.01566
G1 X236.457 Y92.112 E.01566
G1 X235.995 Y92.303 E.01566
G1 X235.5 Y92.368 E.01566
G1 X235.005 Y92.303 E.01566
G1 X234.543 Y92.112 E.01566
G1 X234.147 Y91.808 E.01566
G1 X233.843 Y91.411 E.01566
G1 X233.652 Y90.95 E.01566
G1 X233.586 Y90.455 E.01566
G1 X233.652 Y89.959 E.01566
G1 X233.843 Y89.498 E.01566
G1 X234.147 Y89.101 E.01566
G1 X234.543 Y88.797 E.01566
G1 X235.005 Y88.606 E.01566
G1 X235.399 Y88.554 E.01248
M204 S1000
G1 X235.653 Y88.197 F10800
;WIPE_START
G1 F8640
G1 X235.993 Y88.605 E-.13765
G1 X236.457 Y88.797 E-.11586
G1 X236.853 Y89.101 E-.11534
G1 X237.157 Y89.498 E-.11534
G1 X237.348 Y89.959 E-.11534
G1 X237.414 Y90.455 E-.11534
G1 X237.348 Y90.95 E-.11534
G1 X237.157 Y91.411 E-.11534
G1 X237.146 Y91.427 E-.00442
;WIPE_END
G1 E-.05 F2100
G1 Z.4 F720
G1 X235.5 Y106.808 F10800
G1 Z.2 F720
G1 E1 F2100
M204 S800
;TYPE:Perimeter
G1 F1200
G1 X236.088 Y106.873 E.01854
G1 X236.647 Y107.104 E.01897
G1 X237.122 Y107.469 E.01878
G1 X237.487 Y107.944 E.01878
G1 X237.716 Y108.497 E.01878
G1 X237.794 Y109.091 E.01878
G1 X237.716 Y109.685 E.01878
G1 X237.487 Y110.238 E.01878
G1 X237.122 Y110.713 E.01878
G1 X236.647 Y111.077 E.01878
G1 X236.094 Y111.307 E.01878
G1 X235.5 Y111.385 E.01878
G1 X234.906 Y111.307 E.01878
G1 X234.353 Y111.077 E.01878
G1 X233.878 Y110.713 E.01878
G1 X233.513 Y110.238 E.01878
G1 X233.284 Y109.685 E.01878
G1 X233.206 Y109.091 E.01878
G1 X233.284 Y108.497 E.01878
G1 X233.513 Y107.944 E.01878
G1 X233.878 Y107.469 E.01878
G1 X234.353 Y107.104 E.01878
G1 X234.906 Y106.875 E.01878
G1 X235.44 Y106.805 E.01689
M204 S1000
G1 X235.459 Y107.183 F10800
M204 S800
;TYPE:External perimeter
G1 F1200
G1 X235.993 Y107.242 E.01686
G1 X236.457 Y107.434 E.01573
G1 X236.853 Y107.738 E.01566
G1 X237.157 Y108.134 E.01566
G1 X237.348 Y108.596 E.01566
G1 X237.414 Y109.091 E.01566
G1 X237.348 Y109.586 E.01566
G1 X237.157 Y110.048 E.01566
G1 X236.853 Y110.444 E.01566
G1 X236.457 Y110.748 E.01566
G1 X235.995 Y110.939 E.01566
G1 X235.5 Y111.004 E.01566
G1 X235.005 Y110.939 E.01566
G1 X234.543 Y110.748 E.01566
G1 X234.147 Y110.444 E.01566
G1 X233.843 Y110.048 E.01566
G1 X233.652 Y109.586 E.01566
G1 X233.586 Y109.091 E.01566
G1 X233.652 Y108.596 E.01566
G1 X233.843 Y108.134 E.01566
G1 X234.147 Y107.738 E.01566
G1 X234.543 Y107.434 E.01566
G1 X235.005 Y107.243 E.01566
G1 X235.399 Y107.191 E.01248
M204 S1000
G1 X235.653 Y106.833 F10800
;WIPE_START
G1 F8640
G1 X235.993 Y107.242 E-.13765
G1 X236.457 Y107.434 E-.11587
G1 X236.853 Y107.738 E-.11534
G1 X237.157 Y108.134 E-.11534
G1 X237.348 Y108.596 E-.11534
G1 X237.414 Y109.091 E-.11534
G1 X237.348 Y109.586 E-.11534
G1 X237.157 Y110.048 E-.11534
G1 X237.146 Y110.063 E-.00442
;WIPE_END
G1 E-.05 F2100
G1 Z.4 F720
G1 X235.409 Y125.445 F10800
G1 Z.2 F720
G1 E1 F2100
M204 S800
;TYPE:Perimeter
G1 F1200
G1 X236.088 Y125.509 E.02136
G1 X236.647 Y125.741 E.01897
G1 X237.122 Y126.105 E.01878
G1 X237.487 Y126.58 E.01878
G1 X237.716 Y127.134 E.01878
G1 X237.794 Y127.727 E.01878
G1 X237.716 Y128.321 E.01878
G1 X237.487 Y128.874 E.01878
G1 X237.122 Y129.349 E.01878
G1 X236.647 Y129.714 E.01878
G1 X236.094 Y129.943 E.01878
G1 X235.5 Y130.021 E.01878
G1 X234.906 Y129.943 E.01878
G1 X234.353 Y129.714 E.01878
G1 X233.878 Y129.349 E.01878
G1 X233.513 Y128.874 E.01878
G1 X233.284 Y128.321 E.01878
G1 X233.206 Y127.727 E.01878
G1 X233.284 Y127.134 E.01878
G1 X233.513 Y126.58 E.01878
G1 X233.878 Y126.105 E.01878
G1 X234.353 Y125.741 E.01878
G1 X234.906 Y125.512 E.01878
G1 X235.35 Y125.453 E.01403
M204 S1000
G1 X235.459 Y125.819 F10800
M204 S800
;TYPE:External perimeter
G1 F1200
G1 X235.993 Y125.878 E.01686
G1 X236.457 Y126.07 E.01573
G1 X236.853 Y126.374 E.01566
G1 X237.157 Y126.771 E.01566
G1 X237.348 Y127.232 E.01566
G1 X237.414 Y127.727 E.01566
G1 X237.348 Y128.223 E.01566
G1 X237.157 Y128.684 E.01566
G1 X236.853 Y129.08 E.01566
G1 X236.457 Y129.384 E.01566
G1 X235.995 Y129.576 E.01566
G1 X235.5 Y129.641 E.01566
G1 X235.005 Y129.576 E.01566
G1 X234.543 Y129.384 E.01566
G1 X234.147 Y129.08 E.01566
G1 X233.843 Y128.684 E.01566
G1 X233.652 Y128.223 E.01566
G1 X233.586 Y127.727 E.01566
G1 X233.652 Y127.232 E.01566
G1 X233.843 Y126.771 E.01566
G1 X234.147 Y126.374 E.01566
G1 X234.543 Y126.07 E.01566
G1 X235.005 Y125.879 E.01566
